ui/StatusQ/src/assets/img/icons/private-chat.svg

<svg fill="none" height="24" viewBox="0 0 24 24" width="24" xmlns="http://www.w3.org/2000/svg"><g clip-rule="evenodd" fill="#000" fill-rule="evenodd"><path d="m22 6.5c0-2.48528-2.0147-4.5-4.5-4.5h-5.5c-3.31371 0-6 2.68629-6 6v1c0 1.1046.89543 2 2 2h9.5c2.4853 0 4.5-2.01472 4.5-4.5zm-4.5-3h-5.5c-2.48528 0-4.5 2.01472-4.5 4.5v1c0 .27614.22386.5.5.5h9.5c1.6569 0 3-1.34315 3-3s-1.3431-3-3-3z"/><path d="m2 17.5c0 2.4853 2.01472 4.5 4.5 4.5h5.5c3.3137 0 6-2.6863 6-6v-1c0-1.1046-.8954-2-2-2h-9.5c-2.48528 0-4.5 2.0147-4.5 4.5zm4.5 3h5.5c2.4853 0 4.5-2.0147 4.5-4.5v-1c0-.2761-.2239-.5-.5-.5h-9.5c-1.65685 0-3 1.3431-3 3s1.34315 3 3 3z"/></g></svg>

<svg width="24" height="24" viewBox="0 0 24 24" fill="none" xmlns="http://www.w3.org/2000/svg">
<path fill-rule="evenodd" clip-rule="evenodd" d="M22 6.5C22 4.01472 19.9853 2 17.5 2H12C8.68629 2 6 4.68629 6 8V9C6 10.1046 6.89543 11 8 11H17.5C19.9853 11 22 8.98528 22 6.5ZM17.5 3.5H12C9.51472 3.5 7.5 5.51472 7.5 8V9C7.5 9.27614 7.72386 9.5 8 9.5H17.5C19.1569 9.5 20.5 8.15685 20.5 6.5C20.5 4.84315 19.1569 3.5 17.5 3.5Z" fill="black"/>
<path fill-rule="evenodd" clip-rule="evenodd" d="M2 17.5C2 19.9853 4.01472 22 6.5 22L12 22C15.3137 22 18 19.3137 18 16L18 15C18 13.8954 17.1046 13 16 13L6.5 13C4.01472 13 2 15.0147 2 17.5ZM6.5 20.5L12 20.5C14.4853 20.5 16.5 18.4853 16.5 16L16.5 15C16.5 14.7239 16.2761 14.5 16 14.5L6.5 14.5C4.84315 14.5 3.5 15.8431 3.5 17.5C3.5 19.1569 4.84315 20.5 6.5 20.5Z" fill="black"/>
</svg>
